;FLAVOR:Marlin
;TIME:7657
;Filament used: 8.22544m
;Layer height: 0.28
;MINX:13.387
;MINY:13.111
;MINZ:0.28
;MAXX:222.291
;MAXY:220.925
;MAXZ:21.84
;Generated with Cura_SteamEngine 5.2.1
M140 S60
M105
M190 S60
M104 S200
M105
M109 S200
M82 ;absolute extrusion mode
M201 X500.00 Y500.00 Z100.00 E5000.00 ;Setup machine max acceleration
M203 X500.00 Y500.00 Z10.00 E50.00 ;Setup machine max feedrate
M204 P500.00 R1000.00 T500.00 ;Setup Print/Retract/Travel acceleration
M205 X8.00 Y8.00 Z0.40 E5.00 ;Setup Jerk
M220 S100 ;Reset Feedrate
M221 S100 ;Reset Flowrate

G28 ;Home

G92 E0 ;Reset Extruder
G1 Z2.0 F3000 ;Move Z Axis up
G1 X10.1 Y20 Z0.28 F5000.0 ;Move to start position
G1 X10.1 Y200.0 Z0.28 F1500.0 E15 ;Draw the first line
G1 X10.4 Y200.0 Z0.28 F5000.0 ;Move to side a little
G1 X10.4 Y20 Z0.28 F1500.0 E30 ;Draw the second line
G92 E0 ;Reset Extruder
G1 Z2.0 F3000 ;Move Z Axis up

G92 E0
G92 E0
G1 F1500 E-6.5
;LAYER_COUNT:78
;LAYER:0
M107
G0 F6000 X19.212 Y18.5 Z0.28
;TYPE:SKIRT
G1 F1500 E0
G1 F1200 X19.559 Y18.177 E0.02207
G1 X20.11 Y17.685 E0.05647
G1 X20.864 Y17.074 E0.10166
G1 X21.294 Y16.756 E0.12656
G1 X21.848 Y16.365 E0.15814
G1 X22.655 Y15.854 E0.20262
G1 X23.159 Y15.565 E0.22967
G1 X23.886 Y15.174 E0.26811
G1 X24.705 Y14.782 E0.31039
G1 X25.342 Y14.513 E0.34258
G1 X25.79 Y14.335 E0.36503
G1 X26.648 Y14.035 E0.40735
G1 X27.351 Y13.825 E0.44152
G1 X27.782 Y13.707 E0.46233
G1 X28.566 Y13.523 E0.49982
G1 X28.963 Y13.445 E0.51866
G1 X29.895 Y13.291 E0.56265
G1 X30.793 Y13.187 E0.60474
G1 X31.239 Y13.154 E0.62557
G1 X32.061 Y13.114 E0.66389
G1 X32.906 Y13.111 E0.70324
G1 X33.637 Y13.142 E0.7373
G1 X34.143 Y13.176 E0.76092
G1 X34.996 Y13.267 E0.80086
G1 X35.71 Y13.376 E0.8345
G1 X36.21 Y13.464 E0.85814
G1 X37.151 Y13.672 E0.90301
G1 X37.879 Y13.871 E0.93815
G1 X38.283 Y13.991 E0.95778
G1 X39.228 Y14.32 E1.00437
G1 X39.887 Y14.583 E1.03741
G1 X40.534 Y14.859 E1.07016
G1 X41.375 Y15.272 E1.11379
G1 X42.04 Y15.638 E1.14914
G1 X42.418 Y15.857 E1.16948
G1 X43.122 Y16.301 E1.20824
G1 X43.736 Y16.729 E1.24309
G1 X44.153 Y17.035 E1.26717
G1 X44.874 Y17.612 E1.31017
G1 X45.194 Y17.891 E1.32994
G1 X45.857 Y18.496 E1.37173
G1 X46.161 Y18.786 E1.3913
G1 X102.961 Y75.163 E5.11777
G1 X159.823 Y131.657 E8.85013
G1 X216.253 Y187.774 E12.55585
G1 X216.826 Y188.36 E12.59402
G1 X217.2 Y188.756 E12.61938
G1 X217.764 Y189.392 E12.65896
G1 X218.36 Y190.134 E12.70328
G1 X218.8 Y190.739 E12.73811
G1 X219.051 Y191.1 E12.75859
G1 X219.502 Y191.804 E12.79752
G1 X219.873 Y192.45 E12.83221
G1 X220.159 Y192.979 E12.86021
G1 X220.563 Y193.807 E12.90311
G1 X220.816 Y194.393 E12.93283
G1 X221.005 Y194.855 E12.95607
G1 X221.332 Y195.766 E13.00114
G1 X221.536 Y196.438 E13.03384
G1 X221.672 Y196.922 E13.05725
G1 X221.889 Y197.844 E13.10136
G1 X221.992 Y198.386 E13.12705
G1 X222.104 Y199.062 E13.15895
G1 X222.215 Y200.021 E13.20391
G1 X222.272 Y200.881 E13.24404
G1 X222.29 Y201.316 E13.26431
G1 X222.291 Y202.183 E13.30468
G1 X222.257 Y202.941 E13.34002
G1 X222.222 Y203.44 E13.36331
G1 X222.125 Y204.314 E13.40426
G1 X222.011 Y205.04 E13.43848
G1 X221.92 Y205.539 E13.46209
G1 X221.727 Y206.4 E13.50318
G1 X221.526 Y207.132 E13.53853
G1 X221.371 Y207.646 E13.56353
G1 X221.079 Y208.488 E13.60502
G1 X220.813 Y209.153 E13.63837
G1 X220.627 Y209.589 E13.66045
G1 X220.26 Y210.364 E13.70038
G1 X219.889 Y211.061 E13.73714
G1 X219.648 Y211.486 E13.75989
G1 X219.214 Y212.188 E13.79832
G1 X218.796 Y212.801 E13.83287
G1 X218.498 Y213.216 E13.85666
G1 X217.954 Y213.913 E13.89783
G1 X217.477 Y214.469 E13.93194
G1 X217.148 Y214.835 E13.95486
G1 X216.498 Y215.499 E13.99813
G1 X216.169 Y215.808 E14.01914
G1 X215.648 Y216.276 E14.05175
G1 X214.873 Y216.904 E14.0982
G1 X214.251 Y217.363 E14.1342
G1 X213.705 Y217.746 E14.16525
G1 X212.922 Y218.238 E14.20831
G1 X212.554 Y218.448 E14.22804
G1 X211.872 Y218.817 E14.26415
G1 X211.129 Y219.18 E14.30265
G1 X210.423 Y219.484 E14.33845
G1 X209.951 Y219.673 E14.36212
G1 X209.132 Y219.964 E14.40259
G1 X208.339 Y220.204 E14.44117
G1 X207.911 Y220.321 E14.46183
G1 X207.172 Y220.495 E14.49719
G1 X206.365 Y220.649 E14.53544
G1 X205.845 Y220.733 E14.55997
G1 X204.926 Y220.842 E14.60306
G1 X204.151 Y220.897 E14.63924
G1 X203.707 Y220.918 E14.65994
G1 X202.866 Y220.925 E14.6991
G1 X202.132 Y220.898 E14.7333
G1 X201.614 Y220.866 E14.75747
G1 X200.709 Y220.772 E14.79983
G1 X199.94 Y220.656 E14.83605
G1 X199.498 Y220.578 E14.85694
G1 X198.659 Y220.395 E14.89693
G1 X197.85 Y220.18 E14.93591
G1 X197.456 Y220.064 E14.95503
G1 X196.547 Y219.753 E14.99977
G1 X195.861 Y219.484 E15.03408
G1 X195.198 Y219.203 E15.06761
G1 X194.462 Y218.85 E15.10562
G1 X194.109 Y218.664 E15.1242
G1 X193.325 Y218.223 E15.16608
G1 X192.538 Y217.729 E15.20935
G1 X192.181 Y217.483 E15.22954
G1 X191.533 Y217.013 E15.26681
G1 X190.869 Y216.485 E15.30632
G1 X190.355 Y216.038 E15.33804
G1 X189.784 Y215.51 E15.37425
G1 X189.064 Y214.811 E15.42098
G1 X146.961 Y172.818 E18.18991
G1 X104.453 Y130.53 E20.9819
G1 X61.693 Y88.093 E23.7871
G1 X19.419 Y46.245 E26.55693
G1 X18.922 Y45.739 E26.58995
G1 X18.505 Y45.298 E26.61822
G1 X17.951 Y44.676 E26.657
G1 X17.455 Y44.071 E26.69343
G1 X17.02 Y43.49 E26.72723
G1 X16.701 Y43.04 E26.75291
G1 X16.174 Y42.222 E26.79822
G1 X15.787 Y41.551 E26.83429
G1 X15.57 Y41.155 E26.85532
G1 X15.158 Y40.32 E26.89867
G1 X14.861 Y39.639 E26.93327
G1 X14.7 Y39.246 E26.95304
G1 X14.411 Y38.455 E26.99226
G1 X14.258 Y37.981 E27.01545
G1 X14.013 Y37.139 E27.05628
G1 X13.805 Y36.269 E27.09794
G1 X13.712 Y35.794 E27.12047
G1 X13.587 Y35.06 E27.15514
G1 X13.474 Y34.117 E27.19937
G1 X13.425 Y33.469 E27.22963
G1 X13.388 Y32.729 E27.26413
G1 X13.387 Y31.824 E27.30627
G1 X13.424 Y31.034 E27.34309
G1 X13.462 Y30.515 E27.36733
G1 X13.561 Y29.647 E27.40801
G1 X13.663 Y29.003 E27.43837
G1 X13.742 Y28.56 E27.45932
G1 X13.946 Y27.642 E27.50311
G1 X14.068 Y27.187 E27.52504
G1 X14.292 Y26.425 E27.56203
G1 X14.586 Y25.575 E27.60391
G1 X14.857 Y24.895 E27.63799
G1 X15.043 Y24.458 E27.66011
G1 X15.403 Y23.694 E27.69943
G1 X15.772 Y22.998 E27.73612
G1 X16.028 Y22.545 E27.76035
G1 X16.5 Y21.785 E27.802
G1 X16.947 Y21.134 E27.83877
G1 X17.191 Y20.796 E27.85819
G1 X17.726 Y20.113 E27.89858
G1 X17.991 Y19.801 E27.91765
G1 X18.52 Y19.206 E27.95472
G1 X19.212 Y18.5 E28.00075
G0 F6000 X19.485 Y18.793
G1 F1200 X20.024 Y18.295 E28.03492
G1 X20.375 Y17.984 E28.05676
G1 X21.102 Y17.395 E28.10033
G1 X21.532 Y17.077 E28.12523
G1 X22.076 Y16.694 E28.15621
G1 X22.854 Y16.201 E28.1991
G1 X23.358 Y15.912 E28.22615
G1 X24.073 Y15.527 E28.26396
G1 X24.863 Y15.15 E28.30472
G1 X25.49 Y14.885 E28.33642
G1 X25.938 Y14.707 E28.35887
G1 X26.765 Y14.418 E28.39966
G1 X27.457 Y14.211 E28.43329
G1 X27.888 Y14.093 E28.4541
G1 X28.643 Y13.916 E28.49021
G1 X29.436 Y13.768 E28.52777
G1 X29.957 Y13.686 E28.55233
G1 X30.823 Y13.586 E28.59292
G1 X31.604 Y13.533 E28.62937
G1 X32.078 Y13.513 E28.65146
G1 X32.892 Y13.51 E28.68937
G1 X33.267 Y13.523 E28.70684
G1 X34.117 Y13.575 E28.74649
G1 X34.938 Y13.662 E28.78494
G1 X35.64 Y13.769 E28.818
G1 X36.14 Y13.857 E28.84164
G1 X37.047 Y14.058 E28.8849
G1 X37.491 Y14.177 E28.9063
G1 X38.169 Y14.375 E28.93919
G1 X39.08 Y14.691 E28.98409
G1 X39.739 Y14.954 E29.01713
G1 X40.373 Y15.226 E29.04926
G1 X41.184 Y15.623 E29.0913
G1 X41.84 Y15.984 E29.12617
G1 X42.218 Y16.203 E29.14651
G1 X42.895 Y16.631 E29.1838
G1 X43.499 Y17.051 E29.21806
G1 X43.916 Y17.357 E29.24214
G1 X44.611 Y17.913 E29.28359
G1 X45.14 Y18.379 E29.31642
G1 X45.587 Y18.79 E29.34469
G1 X45.879 Y19.07 E29.36353
G1 X102.679 Y75.446 E33.08997
G1 X159.541 Y131.941 E36.82237
G1 X215.967 Y188.053 E40.52779
G1 X216.54 Y188.639 E40.56595
G1 X216.907 Y189.029 E40.59089
G1 X217.463 Y189.656 E40.62991
G1 X218.038 Y190.371 E40.67264
G1 X218.312 Y190.744 E40.69419
G1 X218.723 Y191.329 E40.72748
G1 X219.157 Y192.007 E40.76496
G1 X219.521 Y192.64 E40.79896
G1 X219.807 Y193.169 E40.82696
G1 X220.197 Y193.967 E40.86832
G1 X220.446 Y194.544 E40.89759
G1 X220.635 Y195.006 E40.92083
G1 X220.95 Y195.885 E40.96431
G1 X221.151 Y196.547 E40.99652
G1 X221.287 Y197.031 E41.01993
G1 X221.496 Y197.919 E41.06241
G1 X221.599 Y198.461 E41.0881
G1 X221.71 Y199.125 E41.11945
G1 X221.816 Y200.05 E41.1628
G1 X221.872 Y200.898 E41.20237
G1 X221.89 Y201.333 E41.22265
G1 X221.892 Y202.168 E41.26153
G1 X221.877 Y202.568 E41.28017
G1 X221.823 Y203.412 E41.31955
G1 X221.73 Y204.254 E41.35899
G1 X221.617 Y204.969 E41.3927
G1 X221.526 Y205.468 E41.41632
G1 X221.34 Y206.297 E41.45588
G1 X221.143 Y207.016 E41.49059
G1 X220.988 Y207.53 E41.51559
G1 X220.707 Y208.342 E41.5556
G1 X220.563 Y208.709 E41.57396
G1 X220.259 Y209.432 E41.61048
G1 X219.905 Y210.179 E41.64897
G1 X219.541 Y210.864 E41.68509
G1 X219.3 Y211.289 E41.70784
G1 X218.882 Y211.965 E41.74485
G1 X218.471 Y212.568 E41.77883
G1 X218.173 Y212.983 E41.80262
G1 X217.649 Y213.654 E41.84226
G1 X217.382 Y213.969 E41.86149
G1 X216.85 Y214.567 E41.89876
G1 X216.224 Y215.207 E41.94045
G1 X215.679 Y215.714 E41.97511
G1 X215.383 Y215.977 E41.99355
G1 X214.636 Y216.582 E42.03831
G1 X214.014 Y217.041 E42.0743
G1 X213.478 Y217.417 E42.10479
G1 X212.724 Y217.89 E42.14624
G1 X212.101 Y218.241 E42.17953
G1 X211.684 Y218.464 E42.20155
G1 X210.967 Y218.814 E42.2387
G1 X210.616 Y218.969 E42.25657
G1 X209.802 Y219.301 E42.29751
G1 X209.013 Y219.582 E42.33651
G1 X208.233 Y219.818 E42.37445
G1 X207.805 Y219.935 E42.39511
G1 X207.094 Y220.103 E42.42913
G1 X206.301 Y220.254 E42.46672
G1 X205.781 Y220.338 E42.49125
G1 X204.895 Y220.443 E42.53279
G1 X204.132 Y220.497 E42.56841
G1 X203.688 Y220.518 E42.58911
G1 X202.878 Y220.525 E42.62682
G1 X202.156 Y220.499 E42.66047
G1 X201.638 Y220.467 E42.68463
G1 X200.766 Y220.377 E42.72545
G1 X200.326 Y220.313 E42.74616
G1 X199.568 Y220.184 E42.78196
G1 X198.759 Y220.008 E42.82051
G1 X198.306 Y219.891 E42.8423
G1 X197.569 Y219.68 E42.87799
G1 X196.693 Y219.38 E42.92111
G1 X196.007 Y219.111 E42.95542
G1 X195.357 Y218.836 E42.98828
G1 X194.649 Y218.496 E43.02486
G1 X193.98 Y218.137 E43.06021
G1 X193.523 Y217.876 E43.08471
G1 X192.765 Y217.399 E43.12642
G1 X192.408 Y217.153 E43.14661
G1 X191.77 Y216.69 E43.18331
G1 X191.13 Y216.182 E43.22136
G1 X190.624 Y215.742 E43.25258
G1 X190.062 Y215.223 E43.2882
G1 X189.346 Y214.528 E43.33467
G1 X147.243 Y172.535 E46.1036
G1 X104.726 Y130.237 E48.89622
G1 X61.975 Y87.809 E51.70083
G1 X19.705 Y45.965 E54.47039
G1 X19.208 Y45.459 E54.50342
G1 X18.797 Y45.024 E54.53128
G1 X18.251 Y44.412 E54.56947
G1 X17.773 Y43.828 E54.60461
G1 X17.346 Y43.258 E54.63778
G1 X17.027 Y42.808 E54.66346
G1 X16.52 Y42.02 E54.70709
G1 X16.138 Y41.359 E54.74264
G1 X15.921 Y40.963 E54.76367
G1 X15.524 Y40.158 E54.80546
G1 X15.231 Y39.487 E54.83956
G1 X15.07 Y39.094 E54.85933
G1 X14.791 Y38.332 E54.89712
G1 X14.638 Y37.858 E54.92031
G1 X14.398 Y37.031 E54.96041
G1 X14.198 Y36.192 E55.00057
G1 X14.105 Y35.717 E55.02311
G1 X13.982 Y34.996 E55.05717
G1 X13.873 Y34.087 E55.0998
G1 X13.824 Y33.439 E55.13006
G1 X13.788 Y32.712 E55.16395
G1 X13.786 Y31.84 E55.20455
G1 X13.823 Y31.063 E55.24077
G1 X13.861 Y30.544 E55.26501
G1 X13.956 Y29.708 E55.30418
G1 X14.015 Y29.324 E55.32227
G1 X14.136 Y28.63 E55.35508
G1 X14.333 Y27.746 E55.39725
G1 X14.54 Y26.99 E55.43375
G1 X14.675 Y26.54 E55.45563
G1 X14.958 Y25.72 E55.49602
G1 X15.108 Y25.337 E55.51517
G1 X15.411 Y24.615 E55.55163
G1 X15.758 Y23.878 E55.58956
G1 X15.943 Y23.522 E55.60824
G1 X16.377 Y22.742 E55.64981
G1 X16.831 Y22.009 E55.68996
G1 X17.271 Y21.368 E55.72616
G1 X17.515 Y21.03 E55.74557
G1 X18.031 Y20.372 E55.78451
G1 X18.485 Y19.843 E55.81697
G1 X18.817 Y19.473 E55.84011
G1 X19.485 Y18.793 E55.8845
G0 F6000 X19.757 Y19.086
G1 F1200 X20.104 Y18.763 E55.90657
G1 X20.641 Y18.284 E55.94008
G1 X21.34 Y17.717 E55.98199
G1 X21.77 Y17.399 E56.00689
G1 X22.305 Y17.022 E56.03737
G1 X23.053 Y16.548 E56.0786
G1 X23.557 Y16.259 E56.10566
G1 X24.26 Y15.88 E56.14285
G1 X25.02 Y15.517 E56.18206
G1 X25.389 Y15.359 E56.20076
G1 X26.086 Y15.079 E56.23573
G1 X26.881 Y14.8 E56.27496
G1 X27.285 Y14.677 E56.29463
G1 X27.994 Y14.479 E56.32891
G1 X28.721 Y14.308 E56.36368
G1 X29.498 Y14.163 E56.40049
G1 X30.019 Y14.081 E56.42505
G1 X30.852 Y13.985 E56.46409
G1 X31.621 Y13.933 E56.49998
G1 X32.095 Y13.913 E56.52207
G1 X32.878 Y13.91 E56.55853
G1 X33.584 Y13.94 E56.59143
G1 X34.09 Y13.974 E56.61505
G1 X34.881 Y14.058 E56.65209
G1 X35.571 Y14.163 E56.68459
G1 X36.071 Y14.251 E56.70823
G1 X36.944 Y14.445 E56.74987
G1 X37.651 Y14.638 E56.784
G1 X38.055 Y14.758 E56.80362
G1 X38.932 Y15.063 E56.84686
G1 X39.591 Y15.326 E56.87989
G1 X40.213 Y15.592 E56.9114
G1 X40.993 Y15.974 E56.95184
G1 X41.401 Y16.196 E56.97347
G1 X42.017 Y16.549 E57.00652
G1 X42.669 Y16.961 E57.04244
G1 X43.262 Y17.374 E57.07609
G1 X43.679 Y17.68 E57.10017
G1 X44.348 Y18.215 E57.14006
G1 X44.869 Y18.673 E57.17236
G1 X45.316 Y19.084 E57.20064
G1 X45.597 Y19.354 E57.21878
G1 X102.397 Y75.73 E60.94522
G1 X159.259 Y132.224 E64.67759
G1 X215.681 Y188.333 E68.38278
G1 X216.254 Y188.919 E68.42094
G1 X216.615 Y189.302 E68.44545
G1 X217.163 Y189.92 E68.48391
G1 X217.715 Y190.607 E68.52495
G1 X218.144 Y191.196 E68.55888
G1 X218.395 Y191.557 E68.57935
G1 X218.812 Y192.21 E68.61543
G1 X219.17 Y192.83 E68.64877
G1 X219.456 Y193.359 E68.67677
G1 X219.83 Y194.127 E68.71654
G1 X220.076 Y194.696 E68.74541
G1 X220.265 Y195.158 E68.76865
G1 X220.568 Y196.003 E68.81045
G1 X220.69 Y196.397 E68.82966
G1 X220.902 Y197.139 E68.86559
G1 X221.103 Y197.994 E68.90649
G1 X221.257 Y198.826 E68.94589
G1 X221.315 Y199.188 E68.96296
G1 X221.417 Y200.078 E69.00467
G1 X221.455 Y200.612 E69.0296
G1 X221.49 Y201.349 E69.06396
G1 X221.492 Y202.153 E69.1014
G1 X221.459 Y202.885 E69.13552
G1 X221.424 Y203.384 E69.15881
G1 X221.334 Y204.194 E69.19676
G1 X221.224 Y204.897 E69.22989
G1 X221.133 Y205.396 E69.25351
G1 X220.954 Y206.194 E69.29159
G1 X220.76 Y206.901 E69.32573
G1 X220.605 Y207.415 E69.35073
G1 X220.334 Y208.196 E69.38922
G1 X220.077 Y208.839 E69.42146
G1 X219.891 Y209.275 E69.44354
G1 X219.551 Y209.994 E69.48057
G1 X219.193 Y210.666 E69.51603
G1 X218.952 Y211.091 E69.53878
G1 X218.55 Y211.742 E69.5744
G1 X218.332 Y212.067 E69.59263
G1 X217.848 Y212.749 E69.63157
G1 X217.344 Y213.395 E69.66972
G1 X216.882 Y213.934 E69.70277
G1 X216.553 Y214.3 E69.72569
G1 X215.95 Y214.916 E69.76583
G1 X215.413 Y215.415 E69.79996
G1 X215.117 Y215.678 E69.8184
G1 X214.398 Y216.26 E69.86147
G1 X213.776 Y216.719 E69.89747
G1 X213.251 Y217.087 E69.92732
G1 X212.525 Y217.543 E69.96724
G1 X211.912 Y217.889 E70.00002
G1 X211.495 Y218.112 E70.02204
G1 X210.805 Y218.448 E70.05778
G1 X210.126 Y218.741 E70.09221
G1 X209.654 Y218.93 E70.11589
G1 X208.894 Y219.2 E70.15344
G1 X208.128 Y219.432 E70.19071
G1 X207.7 Y219.549 E70.21137
G1 X207.015 Y219.711 E70.24415
G1 X206.238 Y219.859 E70.28098
G1 X205.718 Y219.943 E70.30551
G1 X204.865 Y220.045 E70.34551
G1 X204.113 Y220.098 E70.38061
G1 X203.669 Y220.119 E70.40131
G1 X202.89 Y220.126 E70.43758
G1 X202.181 Y220.1 E70.47062
G1 X201.663 Y220.068 E70.49479
G1 X200.824 Y219.981 E70.53406
G1 X200.079 Y219.868 E70.56915
G1 X199.637 Y219.79 E70.59005
G1 X198.859 Y219.621 E70.62712
G1 X198.076 Y219.413 E70.66485
G1 X197.682 Y219.297 E70.68397
G1 X196.839 Y219.008 E70.72547
G1 X196.153 Y218.739 E70.75978
G1 X195.517 Y218.47 E70.79193
G1 X194.835 Y218.142 E70.82717
G1 X194.178 Y217.789 E70.8619
G1 X193.721 Y217.528 E70.88641
G1 X192.992 Y217.07 E70.92649
G1 X192.389 Y216.649 E70.96074
G1 X192.006 Y216.368 E70.98286
G1 X191.39 Y215.879 E71.01948
G1 X191.112 Y215.64 E71.03655
G1 X190.34 Y214.936 E71.0852
G1 X189.735 Y214.35 E71.12442
G1 X147.526 Y172.252 E73.9003
G1 X105.008 Y129.953 E76.69299
G1 X62.257 Y87.525 E79.4976
G1 X19.99 Y45.684 E82.26696
G1 X19.493 Y45.178 E82.29999
G1 X19.089 Y44.751 E82.32736
G1 X18.551 Y44.148 E82.36499
G1 X18.091 Y43.586 E82.3988
G1 X17.673 Y43.027 E82.43131
G1 X17.354 Y42.577 E82.45699
G1 X16.865 Y41.819 E82.49899
G1 X16.624 Y41.406 E82.52126
G1 X16.272 Y40.771 E82.55507
G1 X15.889 Y39.996 E82.59532
G1 X15.601 Y39.336 E82.62885
G1 X15.44 Y38.943 E82.64863
G1 X15.172 Y38.209 E82.68501
G1 X15.019 Y37.735 E82.70821
G1 X14.783 Y36.922 E82.74762
