;FLAVOR:Marlin
;TIME:11545
;Filament used: 6.89442m
;Layer height: 0.2
;MINX:13.096
;MINY:15.293
;MINZ:0.2
;MAXX:221.905
;MAXY:219.691
;MAXZ:22
;Generated with Cura_SteamEngine 5.2.1
M82 ;absolute extrusion mode
; Preamble
M220 S100 ;Reset Feedrate
M221 S100 ;Reset Flowrate

; - Home - this is used with the strain gauge as a zero position for the Z-offset
G28

; Remove the ";" before the next line if you want to level before each print (not recommended because it is not necessary)
;G29

; Now we know the positions we can move out of the way and happily droop at the side of the bed
M104 S200
M140 S60

G0 Z25
G0 X0 Y0

; Now wait for the temperatures to reach
M190 R60
M109 S200

; And we can now draw our purge line
G92 E0 ;Reset Extruder
G1 Z2.0 F3000 ;Move Z Axis up
G1 X0 Y20 Z0.28 F5000.0 ;Move to start position
G1 X0 Y200.0 Z0.28 F1500.0 E15 ;Draw the first line
G1 X0.3 Y200.0 Z0.28 F5000.0 ;Move to side a little
G1 X0.3 Y20 Z0.28 F1500.0 E30 ;Draw the second line
G92 E0 ;Reset Extruder
G1 Z2.0 F3000 ;Move Z Axis up
G92 E0
G92 E0
G1 F1500 E-6.5
;LAYER_COUNT:110
;LAYER:0
M107
G0 F6000 X18.987 Y20.081 Z0.2
;TYPE:SKIRT
G1 F1500 E0
G1 F1200 X19.447 Y19.668 E0.02056
G1 X20.183 Y19.074 E0.05202
G1 X20.71 Y18.685 E0.0738
G1 X21.172 Y18.36 E0.09259
G1 X21.998 Y17.842 E0.12502
G1 X22.558 Y17.525 E0.14642
G1 X23.056 Y17.258 E0.16522
G1 X24.019 Y16.809 E0.20056
G1 X24.816 Y16.484 E0.22918
G1 X26.052 Y16.064 E0.2726
G1 X26.888 Y15.834 E0.30144
G1 X28.143 Y15.566 E0.34412
G1 X28.81 Y15.464 E0.36657
G1 X29.409 Y15.387 E0.38665
G1 X30.354 Y15.317 E0.41817
G1 X30.968 Y15.298 E0.4386
G1 X31.559 Y15.293 E0.45826
G1 X32.541 Y15.337 E0.49095
G1 X33.188 Y15.395 E0.51256
G1 X33.812 Y15.466 E0.53345
G1 X34.71 Y15.618 E0.56374
G1 X35.259 Y15.734 E0.5824
G1 X35.896 Y15.885 E0.60418
G1 X36.869 Y16.175 E0.63795
G1 X37.712 Y16.469 E0.66764
G1 X38.898 Y16.961 E0.71035
G1 X39.468 Y17.238 E0.73142
G1 X40.028 Y17.528 E0.7524
G1 X40.821 Y17.992 E0.78296
G1 X41.325 Y18.316 E0.80289
G1 X41.84 Y18.664 E0.82356
G1 X42.618 Y19.253 E0.85601
G1 X43.087 Y19.642 E0.87628
G1 X43.578 Y20.068 E0.8979
G1 X43.957 Y20.418 E0.91506
G1 X44.344 Y20.793 E0.93298
G1 X62.972 Y39.452 E1.80992
G1 X82.464 Y58.842 E2.72436
G1 X101.478 Y77.624 E3.61329
G1 X120.576 Y96.357 E4.50305
G1 X139.215 Y114.512 E5.36847
G1 X158.381 Y133.054 E6.25542
G1 X177.707 Y151.618 E7.14672
G1 X197.065 Y170.083 E8.0365
G1 X216.046 Y188.069 E8.90623
G1 X216.451 Y188.474 E8.92528
G1 X217.227 Y189.29 E8.96273
G1 X217.844 Y189.996 E8.99392
G1 X218.132 Y190.372 E9.00967
G1 X218.643 Y191.07 E9.03844
G1 X219.312 Y192.1 E9.07929
G1 X219.591 Y192.587 E9.09796
G1 X219.88 Y193.116 E9.11801
G1 X220.308 Y194.009 E9.15094
G1 X220.511 Y194.486 E9.16818
G1 X220.744 Y195.067 E9.18901
G1 X221.062 Y195.994 E9.2216
G1 X221.227 Y196.556 E9.24108
G1 X221.383 Y197.133 E9.26096
G1 X221.609 Y198.213 E9.29766
G1 X221.735 Y199.011 E9.32453
G1 X221.856 Y200.176 E9.36349
G1 X221.888 Y200.814 E9.38473
G1 X221.905 Y201.412 E9.40463
G1 X221.881 Y202.373 E9.43661
G1 X221.844 Y202.915 E9.45467
G1 X221.785 Y203.561 E9.47625
G1 X221.652 Y204.492 E9.50753
G1 X221.551 Y205.031 E9.52577
G1 X221.413 Y205.683 E9.54793
G1 X221.167 Y206.603 E9.57961
G1 X220.814 Y207.689 E9.61759
G1 X220.442 Y208.626 E9.65112
G1 X220.217 Y209.125 E9.66933
G1 X219.95 Y209.685 E9.68996
G1 X219.492 Y210.534 E9.72205
G1 X219.226 Y210.979 E9.73929
G1 X218.875 Y211.535 E9.76116
G1 X218.333 Y212.304 E9.79245
G1 X217.959 Y212.789 E9.81282
G1 X217.563 Y213.278 E9.83375
G1 X216.92 Y213.993 E9.86573
G1 X216.542 Y214.378 E9.88368
G1 X216.068 Y214.839 E9.90567
G1 X215.372 Y215.45 E9.93647
G1 X214.955 Y215.786 E9.95428
G1 X214.413 Y216.201 E9.97699
G1 X213.643 Y216.729 E10.00804
G1 X213.147 Y217.039 E10.0275
G1 X212.636 Y217.344 E10.04729
G1 X211.741 Y217.816 E10.08094
G1 X211.296 Y218.025 E10.09729
G1 X210.706 Y218.287 E10.11877
G1 X209.783 Y218.642 E10.15166
G1 X209.273 Y218.812 E10.16954
G1 X208.676 Y218.996 E10.19032
G1 X207.756 Y219.231 E10.2219
G1 X207.217 Y219.344 E10.24021
G1 X206.573 Y219.464 E10.262
G1 X205.626 Y219.589 E10.29377
G1 X205.118 Y219.634 E10.31074
G1 X204.476 Y219.677 E10.33214
G1 X203.507 Y219.691 E10.36437
G1 X202.921 Y219.674 E10.38387
G1 X202.312 Y219.643 E10.40415
G1 X201.356 Y219.543 E10.43612
G1 X200.731 Y219.45 E10.45714
G1 X200.17 Y219.355 E10.47606
G1 X199.193 Y219.133 E10.50938
G1 X198.684 Y218.993 E10.52694
G1 X198.111 Y218.823 E10.54682
G1 X197.184 Y218.496 E10.57951
G1 X196.64 Y218.276 E10.59903
G1 X196.023 Y218.008 E10.62141
G1 X195.199 Y217.601 E10.65197
G1 X194.805 Y217.385 E10.66692
G1 X194.197 Y217.033 E10.69028
G1 X193.393 Y216.511 E10.72217
G1 X192.93 Y216.181 E10.74108
G1 X192.451 Y215.824 E10.76095
G1 X191.678 Y215.181 E10.79439
G1 X191.053 Y214.604 E10.82268
G1 X190.074 Y213.652 E10.8681
G1 X171.516 Y195.066 E11.74167
G1 X152.985 Y176.63 E12.61108
G1 X133.702 Y157.58 E13.51263
G1 X114.604 Y138.84 E14.40256
G1 X95.837 Y120.551 E15.27413
G1 X76.549 Y101.881 E16.16697
G1 X57.212 Y83.293 E17.05908
G1 X38.024 Y64.97 E17.94151
G1 X19.187 Y47.107 E18.80495
G1 X18.563 Y46.5 E18.8339
G1 X18.135 Y46.064 E18.85422
G1 X17.821 Y45.724 E18.86961
G1 X17.475 Y45.333 E18.88698
G1 X16.801 Y44.491 E18.92285
G1 X16.296 Y43.793 E18.95151
G1 X15.571 Y42.649 E18.99655
G1 X15.14 Y41.866 E19.02628
G1 X14.576 Y40.679 E19.06999
G1 X14.262 Y39.901 E19.09789
G1 X13.841 Y38.642 E19.14205
G1 X13.612 Y37.791 E19.17136
G1 X13.359 Y36.588 E19.21225
G1 X13.268 Y35.99 E19.23237
G1 X13.193 Y35.408 E19.25188
G1 X13.119 Y34.379 E19.2862
G1 X13.096 Y33.469 E19.31647
G1 X13.139 Y32.18 E19.35937
G1 X13.193 Y31.595 E19.37891
G1 X13.26 Y31.002 E19.39876
G1 X13.424 Y30.031 E19.43151
G1 X13.562 Y29.39 E19.45332
G1 X13.705 Y28.796 E19.47364
G1 X13.966 Y27.919 E19.50407
G1 X14.158 Y27.359 E19.52376
G1 X14.359 Y26.811 E19.54318
G1 X14.766 Y25.867 E19.57737
G1 X15.06 Y25.264 E19.59968
G1 X15.324 Y24.751 E19.61887
G1 X15.849 Y23.863 E19.65318
G1 X16.328 Y23.133 E19.68222
G1 X17.079 Y22.121 E19.72414
G1 X17.477 Y21.644 E19.7448
G1 X17.889 Y21.172 E19.76564
G1 X18.552 Y20.491 E19.79725
G1 X18.987 Y20.081 E19.81713
G0 F6000 X19.262 Y20.372
G1 F1200 X19.711 Y19.968 E19.83722
G1 X20.421 Y19.396 E19.86754
G1 X20.948 Y19.007 E19.88933
G1 X21.399 Y18.689 E19.90768
G1 X22.195 Y18.19 E19.93893
G1 X22.755 Y17.873 E19.96033
G1 X23.242 Y17.612 E19.97871
G1 X24.171 Y17.18 E20.01279
G1 X24.968 Y16.855 E20.04142
G1 X26.158 Y16.45 E20.08322
G1 X26.994 Y16.22 E20.11206
G1 X28.204 Y15.962 E20.15321
G1 X28.871 Y15.86 E20.17565
G1 X29.455 Y15.785 E20.19524
G1 X30.366 Y15.717 E20.22562
G1 X30.98 Y15.698 E20.24605
G1 X31.559 Y15.693 E20.26531
G1 X32.505 Y15.735 E20.29681
G1 X33.152 Y15.793 E20.31841
G1 X33.762 Y15.863 E20.33883
G1 X34.627 Y16.009 E20.36801
G1 X35.176 Y16.125 E20.38667
G1 X35.799 Y16.273 E20.40797
G1 X36.738 Y16.552 E20.44055
G1 X37.581 Y16.846 E20.47025
G1 X38.723 Y17.321 E20.51139
G1 X39.293 Y17.598 E20.53246
G1 X39.841 Y17.881 E20.55298
G1 X40.605 Y18.329 E20.58243
G1 X41.109 Y18.653 E20.60236
G1 X41.613 Y18.993 E20.62258
G1 X42.363 Y19.561 E20.65387
G1 X42.832 Y19.95 E20.67414
G1 X43.313 Y20.368 E20.69534
G1 X43.678 Y20.706 E20.71188
G1 X44.191 Y21.204 E20.73566
G1 X62.69 Y39.736 E21.60657
G1 X82.182 Y59.126 E22.52102
G1 X101.198 Y77.91 E23.41004
G1 X120.297 Y96.644 E24.29985
G1 X138.937 Y114.8 E25.16531
G1 X158.104 Y133.342 E26.05229
G1 X177.458 Y151.933 E26.94488
G1 X196.79 Y170.374 E27.83349
G1 X215.771 Y188.36 E28.70321
G1 X216.161 Y188.749 E28.72153
G1 X216.937 Y189.565 E28.75899
G1 X217.809 Y190.608 E28.8042
G1 X218.32 Y191.306 E28.83298
G1 X218.965 Y192.299 E28.87236
G1 X219.244 Y192.786 E28.89103
G1 X219.527 Y193.305 E28.91069
G1 X219.939 Y194.165 E28.94241
G1 X220.142 Y194.642 E28.95965
G1 X220.371 Y195.213 E28.98011
G1 X220.678 Y196.107 E29.01155
G1 X220.843 Y196.669 E29.03103
G1 X220.996 Y197.235 E29.05053
G1 X221.214 Y198.276 E29.08591
G1 X221.34 Y199.074 E29.11278
G1 X221.457 Y200.196 E29.1503
G1 X221.489 Y200.834 E29.17154
G1 X221.505 Y201.419 E29.19101
G1 X221.482 Y202.346 E29.22185
G1 X221.445 Y202.888 E29.23992
G1 X221.387 Y203.521 E29.26106
G1 X221.259 Y204.418 E29.2912
G1 X221.158 Y204.957 E29.30944
G1 X221.022 Y205.597 E29.3312
G1 X220.785 Y206.483 E29.3617
G1 X220.618 Y207.015 E29.38025
G1 X220.435 Y207.558 E29.39931
G1 X220.077 Y208.461 E29.43161
G1 X219.852 Y208.96 E29.44982
G1 X219.59 Y209.51 E29.47008
G1 X219.148 Y210.329 E29.50104
G1 X218.882 Y210.774 E29.51828
G1 X218.538 Y211.319 E29.53972
G1 X218.016 Y212.06 E29.56986
G1 X217.642 Y212.545 E29.59023
G1 X217.255 Y213.024 E29.61071
G1 X216.635 Y213.713 E29.64154
G1 X216.257 Y214.098 E29.65949
G1 X215.791 Y214.55 E29.68108
G1 X215.121 Y215.139 E29.71075
G1 X214.704 Y215.475 E29.72856
G1 X214.173 Y215.881 E29.7508
G1 X213.431 Y216.39 E29.78072
G1 X212.935 Y216.7 E29.80018
G1 X212.433 Y216.999 E29.81961
G1 X211.571 Y217.453 E29.85201
G1 X210.862 Y217.782 E29.87801
G1 X210.546 Y217.92 E29.88948
G1 X209.656 Y218.262 E29.92119
G1 X209.146 Y218.432 E29.93907
G1 X208.561 Y218.613 E29.95944
G1 X207.674 Y218.839 E29.98988
G1 X206.808 Y219.016 E30.01928
G1 X206.503 Y219.07 E30.02958
G1 X205.59 Y219.191 E30.06022
G1 X205.082 Y219.236 E30.07718
G1 X204.452 Y219.277 E30.09818
G1 X203.519 Y219.292 E30.12921
G1 X202.933 Y219.275 E30.14871
G1 X202.336 Y219.244 E30.16859
G1 X201.415 Y219.148 E30.19939
G1 X200.79 Y219.055 E30.22041
G1 X200.241 Y218.961 E30.23893
G1 X199.299 Y218.747 E30.27106
G1 X198.79 Y218.607 E30.28862
G1 X198.227 Y218.44 E30.30815
G1 X197.334 Y218.125 E30.33965
G1 X196.79 Y217.905 E30.35917
G1 X196.185 Y217.643 E30.38109
G1 X195.391 Y217.25 E30.41056
G1 X194.997 Y217.034 E30.42551
G1 X194.4 Y216.688 E30.44846
G1 X193.625 Y216.185 E30.47918
G1 X193.162 Y215.855 E30.4981
G1 X192.692 Y215.505 E30.51759
G1 X191.947 Y214.886 E30.5498
G1 X191.331 Y214.317 E30.57769
G1 X190.357 Y213.37 E30.62288
G1 X171.799 Y194.784 E31.49645
G1 X153.267 Y176.347 E32.3659
G1 X133.983 Y157.296 E33.2675
G1 X114.857 Y138.528 E34.15875
G1 X96.116 Y120.264 E35.02912
G1 X76.853 Y101.619 E35.92078
G1 X57.489 Y83.005 E36.81414
G1 X38.3 Y64.681 E37.69662
G1 X19.357 Y46.716 E38.56494
G1 X18.842 Y46.214 E38.58887
G1 X18.424 Y45.787 E38.60874
G1 X18.121 Y45.459 E38.62359
G1 X17.775 Y45.068 E38.64096
G1 X17.125 Y44.256 E38.67555
G1 X16.62 Y43.558 E38.70421
G1 X15.922 Y42.457 E38.74756
G1 X15.491 Y41.674 E38.77729
G1 X14.947 Y40.529 E38.81945
G1 X14.633 Y39.751 E38.84736
G1 X14.227 Y38.538 E38.8899
G1 X13.998 Y37.687 E38.91921
G1 X13.755 Y36.528 E38.9586
G1 X13.664 Y35.93 E38.97872
G1 X13.59 Y35.36 E38.99784
G1 X13.518 Y34.369 E39.03088
G1 X13.495 Y33.459 E39.06116
G1 X13.537 Y32.217 E39.10249
G1 X13.591 Y31.632 E39.12203
G1 X13.657 Y31.051 E39.14148
G1 X13.815 Y30.115 E39.17305
G1 X13.953 Y29.474 E39.19486
G1 X14.093 Y28.894 E39.21471
G1 X14.344 Y28.049 E39.24402
G1 X14.536 Y27.489 E39.26371
G1 X14.733 Y26.952 E39.28274
G1 X15.125 Y26.043 E39.31566
G1 X15.419 Y25.44 E39.33798
G1 X15.678 Y24.938 E39.35677
G1 X16.184 Y24.083 E39.38981
G1 X16.663 Y23.353 E39.41885
G1 X17.386 Y22.377 E39.45925
G1 X17.784 Y21.9 E39.47991
G1 X18.188 Y21.439 E39.5003
G1 X18.827 Y20.782 E39.53078
G1 X19.262 Y20.372 E39.55066
G0 F6000 X19.536 Y20.663
G1 F1200 X19.976 Y20.268 E39.57033
G1 X20.658 Y19.718 E39.59947
G1 X21.185 Y19.329 E39.62126
G1 X21.626 Y19.018 E39.6392
G1 X22.392 Y18.539 E39.66925
G1 X22.952 Y18.222 E39.69066
G1 X23.428 Y17.966 E39.70863
G1 X24.322 Y17.55 E39.74143
G1 X25.119 Y17.225 E39.77005
G1 X26.264 Y16.835 E39.81029
G1 X27.1 Y16.605 E39.83912
G1 X28.264 Y16.357 E39.87871
G1 X28.931 Y16.255 E39.90115
G1 X29.502 Y16.182 E39.9203
G1 X30.379 Y16.117 E39.94955
G1 X30.993 Y16.098 E39.96998
G1 X31.559 Y16.093 E39.9888
G1 X32.47 Y16.134 E40.01913
G1 X33.117 Y16.192 E40.04074
G1 X33.712 Y16.26 E40.06066
G1 X34.545 Y16.4 E40.08875
G1 X35.094 Y16.516 E40.10742
G1 X35.703 Y16.661 E40.12824
G1 X36.606 Y16.93 E40.15958
G1 X37.449 Y17.224 E40.18927
G1 X38.548 Y17.681 E40.22886
G1 X39.118 Y17.958 E40.24994
G1 X39.653 Y18.234 E40.26996
G1 X40.389 Y18.665 E40.29833
G1 X40.893 Y18.989 E40.31825
G1 X41.386 Y19.323 E40.33806
G1 X42.108 Y19.869 E40.36817
G1 X42.577 Y20.258 E40.38843
G1 X43.048 Y20.668 E40.4092
G1 X43.4 Y20.993 E40.42514
G1 X43.908 Y21.487 E40.44871
G1 X62.408 Y40.02 E41.31967
G1 X81.874 Y59.384 E42.23289
G1 X100.943 Y78.22 E43.12438
G1 X120.018 Y96.93 E44.01306
G1 X138.659 Y115.087 E44.87857
G1 X157.827 Y133.631 E45.76562
G1 X177.155 Y152.197 E46.65701
G1 X196.515 Y170.664 E47.54689
G1 X215.496 Y188.65 E48.41661
G1 X215.871 Y189.025 E48.43425
G1 X216.647 Y189.841 E48.4717
G1 X217.486 Y190.845 E48.51522
G1 X217.997 Y191.543 E48.54399
G1 X218.617 Y192.498 E48.58186
G1 X219.035 Y193.234 E48.61002
G1 X219.175 Y193.495 E48.61987
G1 X219.571 Y194.322 E48.65036
G1 X219.881 Y195.059 E48.67696
G1 X219.999 Y195.359 E48.68768
G1 X220.294 Y196.22 E48.71795
G1 X220.459 Y196.782 E48.73743
G1 X220.609 Y197.337 E48.75655
G1 X220.819 Y198.338 E48.79057
G1 X220.945 Y199.136 E48.81744
G1 X221.057 Y200.216 E48.85355
G1 X221.089 Y200.854 E48.8748
G1 X221.105 Y201.427 E48.89387
G1 X221.083 Y202.319 E48.92354
G1 X221.046 Y202.861 E48.94161
G1 X220.989 Y203.481 E48.96232
G1 X220.866 Y204.345 E48.99135
G1 X220.765 Y204.884 E49.00959
G1 X220.631 Y205.51 E49.03088
G1 X220.404 Y206.363 E49.06024
G1 X220.237 Y206.895 E49.07878
G1 X220.057 Y207.428 E49.09749
G1 X219.712 Y208.297 E49.12859
G1 X219.487 Y208.796 E49.1468
G1 X219.23 Y209.336 E49.16669
G1 X218.805 Y210.123 E49.19644
G1 X218.539 Y210.568 E49.21368
G1 X218.202 Y211.103 E49.23471
G1 X217.699 Y211.816 E49.26373
G1 X217.325 Y212.301 E49.2841
G1 X216.946 Y212.77 E49.30416
G1 X216.349 Y213.433 E49.33383
G1 X215.971 Y213.818 E49.35178
G1 X215.515 Y214.261 E49.37292
G1 X214.87 Y214.828 E49.40149
G1 X214.453 Y215.164 E49.4193
G1 X213.933 Y215.561 E49.44106
G1 X213.219 Y216.051 E49.46986
G1 X212.723 Y216.361 E49.48931
G1 X212.231 Y216.654 E49.50836
G1 X211.401 Y217.091 E49.53956
G1 X210.702 Y217.416 E49.5652
G1 X210.386 Y217.554 E49.57667
G1 X209.53 Y217.883 E49.60717
G1 X209.02 Y218.053 E49.62505
G1 X208.445 Y218.23 E49.64506
G1 X207.592 Y218.448 E49.67434
G1 X207.053 Y218.561 E49.69266
G1 X206.433 Y218.676 E49.71363
G1 X205.555 Y218.792 E49.74309
G1 X205.047 Y218.837 E49.76005
G1 X204.429 Y218.878 E49.78065
G1 X203.53 Y218.892 E49.81055
G1 X202.944 Y218.875 E49.83005
G1 X202.36 Y218.844 E49.8495
G1 X201.474 Y218.752 E49.87913
G1 X200.849 Y218.659 E49.90015
G1 X200.311 Y218.567 E49.9183
G1 X199.405 Y218.362 E49.9492
G1 X198.343 Y218.058 E49.98594
G1 X197.484 Y217.754 E50.01624
G1 X196.94 Y217.534 E50.03576
G1 X196.348 Y217.277 E50.05723
G1 X195.584 Y216.899 E50.08558
G1 X195.19 Y216.683 E50.10052
G1 X194.603 Y216.343 E50.12308
G1 X193.857 Y215.859 E50.15266
G1 X193.394 Y215.529 E50.17157
G1 X192.934 Y215.186 E50.19066
G1 X192.217 Y214.59 E50.22167
G1 X191.61 Y214.03 E50.24913
G1 X190.64 Y213.087 E50.29413
G1 X172.082 Y194.501 E51.1677
G1 X153.549 Y176.063 E52.0372
G1 X134.264 Y157.011 E52.93885
G1 X115.162 Y138.267 E53.82897
G1 X96.395 Y119.978 E54.70054
G1 X77.105 Y101.306 E55.59347
G1 X57.766 Y82.716 E56.48567
G1 X38.577 Y64.392 E57.36816
G1 X19.636 Y46.429 E58.23639
G1 X19.121 Y45.927 E58.26031
G1 X18.712 Y45.509 E58.27976
G1 X18.42 Y45.194 E58.29404
G1 X18.074 Y44.803 E58.31141
G1 X17.449 Y44.022 E58.34468
G1 X16.944 Y43.324 E58.37333
G1 X16.272 Y42.264 E58.41508
G1 X15.841 Y41.481 E58.4448
G1 X15.318 Y40.38 E58.48534
G1 X15.004 Y39.602 E58.51325
G1 X14.613 Y38.434 E58.55422
G1 X14.384 Y37.583 E58.58353
G1 X14.15 Y36.468 E58.62142
G1 X14.059 Y35.87 E58.64154
G1 X13.987 Y35.313 E58.66022
G1 X13.918 Y34.359 E58.69203
G1 X13.895 Y33.449 E58.72231
G1 X13.935 Y32.253 E58.76211
G1 X13.989 Y31.668 E58.78165
G1 X14.054 Y31.1 E58.80066
G1 X14.206 Y30.199 E58.83106
G1 X14.344 Y29.558 E58.85286
G1 X14.481 Y28.992 E58.87223
G1 X14.722 Y28.179 E58.90044
G1 X14.914 Y27.619 E58.92013
G1 X15.107 Y27.093 E58.93876
G1 X15.485 Y26.218 E58.97046
G1 X15.779 Y25.615 E58.99278
G1 X16.031 Y25.126 E59.01107
G1 X16.518 Y24.302 E59.04291
G1 X16.997 Y23.572 E59.07195
G1 X17.693 Y22.633 E59.11082
